X:466
T: "Sehnsucht"
N: Z1146
O: Europa, Mitteleuropa, Deutschland, Franken; Lothringen
R: Liebes - Lied
M: 4/4
L: 1/8
K: F
CC | F3Ac2A2 | A4G2
GA | B2G2c2B2 | A6
c2 | d2B2B2d2 | d2c2c2
A2 | c2B2G2G2 | d4c2
c2 | d2B2B2d2 | d2c2c2
A2 | c2B2G2B2 | A6

